!!!OTL: Osterlied.
!!!ARE: Europa, Mitteleuropa, Deutschland
!!!SCT: A0556
!!!TXL: @@DE
!!!YEM: Copyright 1995, estate of Helmut Schaffrath.
**kern	**text
*M3/2	*
*met(3)	*
*clefC3	*
*k[b-]	*
*F:ion	*
=1	=1
!LO:TX:a:t=jon.	!
!LO:N:vis=1	!
2ryy	.
!LO:N:vis=1	!
2ryy	.
!LO:N:vis=1	!
{2f	Am
=2	=2
!LO:N:vis=0	!
1f	Sab-
!LO:N:vis=1	!
2f	-bath
=3	=3
!LO:N:vis=0	!
1e	frů
!LO:N:vis=1	!
2e	Ma-
=4	=4
!LO:N:vis=0	!
1f	-ri-
!LO:N:vis=1	!
2d	-en
=5	=5
!LO:N:vis=0	!
1c}	drey
!LO:N:vis=1	!
{2c	ka-
=6	=6
*lig	*
!LO:N:vis=1	!
2d	-men
!LO:N:vis=1	!
2e	.
*Xlig	*
!LO:N:vis=1	!
2f	ʒum
=7	=7
!LO:N:vis=0	!
1e	Grab
!LO:N:vis=1	!
2d	mit
=8	=8
!LO:N:vis=0	!
1c	Spe-
!LO:N:vis=1	!
2B-	-ce-
=9	=9
!LO:N:vis=0	!
1A}	-rey,
!LO:N:vis=1	!
{2A	als
=10	=10
!LO:N:vis=0	!
1A	jetʒt
!LO:N:vis=1	!
2A	der
=11	=11
!LO:N:vis=0	!
1c	hel-
!LO:N:vis=1	!
2c	-le
=12	=12
*lig	*
!LO:N:vis=1	!
2B-	tag
!LO:N:vis=1	!
2A	.
*Xlig	*
!LO:N:vis=1	!
2G	an-
=13	=13
!LO:N:vis=0	!
1F}	-brach
!LO:N:vis=1	!
{2c	vnd
=14	=14
!LO:N:vis=0	!
1c	man
!LO:N:vis=1	!
2c	die
=15	=15
!LO:N:vis=0	!
1c	Sonn
!LO:N:vis=1	!
2c	auff-
=16	=16
*lig	*
!LO:N:vis=1	!
2B-	-ge-
!LO:N:vis=1	!
2A	.
*Xlig	*
!LO:N:vis=1	!
2G	-hen
=17	=17
1.F/ll}	ſach.
==	==
!!!GTL: Geistliche Volkslieder
!!!AGN: Romanze, Ballade, Lied, religioeses Lied
!! N Herman Die Sontags - Evangelia uber das gantze Jahr... 1560
!!!ONB: ESAC (Essen Associative Code) Database: ALTDEU
!!!AMT: simple triple
!!!AIN: vox
!!!EED: Helmut Schaffrath
!!!EEV: 1.0
!!!RDF**kern: l = terminal long
!!!AMD: Ionian
!!!URL-scan: https://rosdok.uni-rostock.de/mcrviewer/recordIdentifier/rosdok_ppn738218359/iview2/phys_0738.iview2?x=-1583.232250273661&y=-1750.1905652885325&scale=0.2846028696088022&rotation=0&layout=singlePageLayout&logicalDiv=log_0021
!!!ENC: Anna Maria Matuszewska
!!!EEV: 2024/20/03
*-	*-
